Paper/scalable/mimetypes/application-rss+xml-symbolic.svg

<?xml version="1.0" encoding="UTF-8" standalone="no"?>
<svg
   xmlns:osb="http://www.openswatchbook.org/uri/2009/osb"
   xmlns:dc="http://purl.org/dc/elements/1.1/"
   xmlns:cc="http://creativecommons.org/ns#"
   xmlns:rdf="http://www.w3.org/1999/02/22-rdf-syntax-ns#"
   xmlns:svg="http://www.w3.org/2000/svg"
   xmlns="http://www.w3.org/2000/svg"
   xmlns:sodipodi="http://sodipodi.sourceforge.net/DTD/sodipodi-0.dtd"
   xmlns:inkscape="http://www.inkscape.org/namespaces/inkscape"
   height="16"
   version="1.1"
   width="16"
   enable-background="new"
   id="svg2"
   inkscape:version="0.48.4 r9939"
   sodipodi:docname="application-rss+xml-symbolic.svg">
  <sodipodi:namedview
     pagecolor="#ffffff"
     bordercolor="#666666"
     borderopacity="1"
     objecttolerance="10"
     gridtolerance="10"
     guidetolerance="10"
     inkscape:pageopacity="0"
     inkscape:pageshadow="2"
     inkscape:window-width="752"
     inkscape:window-height="480"
     id="namedview13"
     showgrid="false"
     inkscape:zoom="14.75"
     inkscape:cx="8"
     inkscape:cy="8"
     inkscape:window-x="0"
     inkscape:window-y="32"
     inkscape:window-maximized="0"
     inkscape:current-layer="layer14" />
  <metadata
     id="metadata90">
    <rdf:RDF>
      <cc:Work
         rdf:about="">
        <dc:format>image/svg+xml</dc:format>
        <dc:type
           rdf:resource="http://purl.org/dc/dcmitype/StillImage" />
      </cc:Work>
    </rdf:RDF>
  </metadata>
  <defs
     id="defs7386">
    <linearGradient
       id="linearGradient5606"
       osb:paint="solid">
      <stop
         id="stop5608" />
    </linearGradient>
  </defs>
  <g
     inkscape:groupmode="layer"
     id="layer14"
     inkscape:label="mimetypes"
     transform="translate(-781,238.99987)">
    <path
       d="M 2 2 L 2 3 C 2 3.55016 2.45347 4 3 4 C 7.97056 4 12 8.02944 12 13 C 12 13.55016 12.45347 14 13 14 L 14 14 L 14 13 C 14 6.92487 9.07513 2 3 2 L 2 2 z M 2 6 L 2 7 C 2 7.55016 2.45347 8 3 8 C 5.76143 8 8 10.23857 8 13 C 8 13.55016 8.45347 14 9 14 L 10 14 L 10 13 C 10 9.134 6.866 6 3 6 L 2 6 z M 4 10 C 2.8954297 10 2 10.895453 2 12 C 2 13.104547 2.8954297 14 4 14 C 5.1045703 14 6 13.104547 6 12 C 6 10.895453 5.1045703 10 4 10 z "
       transform="translate(781,-238.99987)"
       id="path4983"
       style="fill:#555555;fill-opacity:1" />
  </g>
</svg>

<svg xmlns="http://www.w3.org/2000/svg" width="16" height="16">
    <path d="M2 2.003v1c0 .55.453 1 1 1a9 9 0 019 9c0 .55.453 1 1 1h1v-1c0-6.075-4.925-11-11-11zm0 4v1c0 .55.453 1 1 1a5 5 0 015 5c0 .55.453 1 1 1h1v-1a7 7 0 00-7-7zm2 4a2 2 0 100 4 2 2 0 000-4z" style="marker:none" color="#000" overflow="visible" fill="#4c5263"/>
</svg>
